X: 1031
T: Alpine Slopes
R: waltz
M: 3/4
K: Gmajor
E2|:"G"DB BD DB|DB BD DB|"D"Dc3-cB|A4-AE|
Dc3-cB|A4-AD|"G"DB3BA|G4-GE|
"G"DB BD DB|DB BD DB|"D"Dc3-cB|A4-Ad|
"D"(3ded ^cd ed|fe d=c BA|(3GBG (3BdB (3dgd|1 g4 E2:|2 g4 f2||
|:"C"(3ecG (3ecG (3ecG|gG fG e2|"G"(3dgd (3BdB (3GBG|DG Bd ed|
"D"(3efe de fd|fe d=c BA|"G"G2 B2 d2|g4G2|
"C"(3ecG (3ecG (3ecG|gG fG e2|"G"(3dgd (3BdB (3GBG|DG Bd ed|
"D"(3efe de fd|fe d=c BA|"G"(3GBG (3BdB (3dgd|G4 E2:|

